X:1
T:Christmas
T:Silent Night
T:Madeline Love
C:Madeline Love
%%score [ 1 2 3 4 ]
L:1/8
Q:1/4=78
M:3/4
K:Bb
V:1 treble nm="Soprano" snm="S."
V:2 treble nm="Alto" snm="A."
V:3 treble-8 nm="Tenor" snm="T."
V:4 bass nm="Bass" snm="B."
V:1
!p! F3 G F2 | D4 z2 | F3 G F2 | D4 z2 |!<(! c4 c2!<)! |!mf! A6 | B4 B2 |!>(! F6!>)! |!mp! G4 G2 | %9
w: Silent * *|night,|holy * *|night.|All is|calm,|all is|bright.|Round yon|
w: |||||||||
 B3 A G2 | F3 G F2 | D6 | G4 G2 | B3 A G2 | F3 G F2 | D6 |!f! c4 c2 | e3 c A2 | B6 | d6 |!mp! B6 | %21
w: virgin, * *|mo- ther and|child.|Holy *|in- fant so|ten- der and|mild.|Sleep in|hea- ven- ly|peace,||Ooh|
w: ||||||||||||
 F6 | [AB]6 | [GB]6 |:!mp! F3 G F2 | D4 z2 | [DF]6 | [DF]6 | c4 c2 | A6 | B4 B2 | F6 | G4 G2 | %33
w: |||Silent * *|night,|Ooh||Shepards *|quake,|at the|sight.|Glo- ries|
w: |||Silent * *|night,|||Son of|god,|loves pure|light.|Ra- diant|
 B3 A G2 | F3 G F2 | D6 | G4 G2 | B3 A G2 | F3 G F2 | D6 |!f! c4 c2 | e3 c A2 | B6 | d6 |!p! B6 | %45
w: stre- am from|Hea- ven a-|far.|Hea- venly|hosts * sing|"A- lle lu|ia"|Christ the|sa- vior is|born.||Ooh|
w: bea- ms from|thy ho- ly|face.|With the|da- wn of|re- dee- ming|grace.|Je- sus|lord, at thy|birth.|||
 [FA]6 | [AB]6 | [GB]6 :| B6 |!p! [Bd]6 |] %50
w: Ooh|Ooh||Hm|Hm|
w: |||||
V:2
!p! D3 E D2 | B,4 z2 | D3 E D2 | B,4 z2 |!<(! A4 A2!<)! |!mf! F6 | G4 G2 |!>(! F6!>)! |!mp! E4 E2 | %9
w: Silent * *|night,|holy * *|night.|All is|calm,|all is|bright.|Round yon|
w: |||||||||
 G3 F E2 | D3 E D2 | B,6 | E4 E2 | G3 F E2 | D3 E D2 | B,6 | z2!mp! A2 A2 | c2 c2 A2 | A2 G2 ^F2 | %19
w: virgin * *|mo- ther and|child.|Ho- ly|in- fant so|te- nder and|mild.|Sleep in|hea- ven- ly|peace, * *|
w: ||||||||||
 =F6 |!f! B2 F2 D2 | F3 E C2 | B,6 | B,6 |:!mp! D3 E D2 | B,4 z2 | B,6 | B,6 | [FA]4 [FA]2 | %29
w: |Sleep * in|heavenly * *|peace.||Silent * *|night,|Ooh||Shepards *|
w: |||||||||Son of|
 [CF]6 | [EG]4 [EG]2 | [B,F]6 | E4 E2 | G3 F E2 | D3 E D2 | B,6 | E4 E2 | G3 F E2 | D3 E D2 | B,6 | %40
w: quake,|at the|sight.|Glo- ries|stre- am from|hea- ven a-|far.|Hea- venly|hosts * sing|"A- lle lu|ia"|
w: god,|loves pure|light.|Ra- diant|bea- ms from|thy ho- ly|face.|With the|da- wn of|re- dee- ming|grace.|
 A4 A2 | c3 A A2 |!<(! A2 G2 [^FA]2!<)! | [=FB]6 |!mp! B2 F2 D2 | F3 E C2 | B,6 | B,6 :| %48
w: Christ the|sa- vior is|born. * *||Chri- st the|sa- viour is|born.||
w: Je- sus|lord, at thy|birth. * *||Je- e- sus-|lord at thy|birth.||
!p! D3 E D2 |!p! B,6 |] %50
w: Hm * *|Hm|
w: ||
V:3
 z6 | z6 | z6 | z6 | z6 | z6 | z6 | z6 | z6 | z6 | z6 | z6 | z6 | z6 | z6 | z6 | z2!mp! F2 F2 | %17
w: ||||||||||||||||Sleep in|
w: |||||||||||||||||
 _G2 _G2 A2 | A6 | B6 | B6 | A6 | A6 | B6 |:!mp! F6- | F6 | F3 G F2 | D6 | F4 A2 | c6 | e2 d2 c2 | %31
w: hea- ven- ly|peace,||Ooh||||Hm||holy * *|night.|Shepards *|quake,|At * the|
w: |||||||||holy * *|night.|Son of|god,|loves * pure|
 d2 c2 B2 | B4 B2 | B3 A B2 | d3 e d2 | B6 | B4 B2 | B3 A B2 | d3 e d2 | B6 | F4 F2 | _G3 _G A2 | %42
w: sight. * *|Glo- ries|stre- am from|hea- ven a-|far.|Hea- venly|hosts * sing|"A- lle lu|ia"|Christ the|sa- vior is|
w: light. * *|Ra- diant|bea- ms from|thy ho- ly|face.|With the|da- wn of|re- dee- ming|grace.|Je- sus|lord, at thy|
!<(! A6!<)! | B6 |!p! B6 | A6 | A6 | G6 :| B6 | B6 |] %50
w: born.||Ooh|Ooh|Ooh||Hm|Hm|
w: birth.||||||||
V:4
 z6 | z6 | z6 | z6 | z6 | z6 | z6 | z6 | z6 | z6 | z6 | z6 | z6 | z6 | z6 | z6 | z2!mp! F,2 F,2 | %17
w: ||||||||||||||||Sleep in|
w: |||||||||||||||||
 E,2 E,2 E,2 | D,6 | B,,6 | F,6 | F,6 | E,6 | E,6 |:!mp! [B,,D,]6- | [B,,D,]6 | D,3 E, D,2 | B,,6 | %28
w: hea- ven- ly|peace,||Ooh||||Hm||holy * *|night.|
w: |||||||||holy * *|night.|
 F,4 F,2 | C,6 | E,4 E,2 | B,,6 | E,4 E,2 | E,3 F, E,2 | F,3 E, D,2 | B,,6 | E,4 E,2 | E,3 F, E,2 | %38
w: Shepards *|quake,|at the|sight.|Glo- ries|stre- am from|hea- ven a-|far.|Hea- venly|hosts * sing|
w: Son of|god,|loves pure|light.|Ra- diant|bea- ms from|thy ho- ly|face.|With the|da- wn of|
 F,3 E, D,2 | B,,6 | F,4 F,2 | E,3 E, E,2 |!<(! D,6!<)! | B,,6 |!p! F,6 | F,6 | E,6 | E,6 :| B,,6 | %49
w: "A- lle lu|ia"|Christ the|sa- vior is|born.||Ooh|Ooh|Ooh||Hm|
w: re- dee- ming|grace.|Je- sus|lord, at thy|birth.|||||||
 B,,6 |] %50
w: Hm|
w: |

